img/image/features-icon-2.svg

<svg width="40" height="40" viewBox="0 0 40 40" fill="none" xmlns="http://www.w3.org/2000/svg">
<path d="M6.48129 29.9888C9.09132 27.2844 14.4647 22.6834 16.1813 20.9047L29.9497 6.63867L32.8837 9.67881L19.1154 23.9448C17.3856 25.7371 12.9582 31.2911 10.3482 33.9954C5.46385 39.0563 2.37794 40.9182 1.09044 39.5811C-0.197053 38.2441 1.5999 35.0466 6.48129 29.9888Z" fill="url(#paint0_linear_226_1861)"/>
<path d="M31.4166 8.15835L32.8836 9.67842L19.1153 23.9444C17.3855 25.7367 12.9581 31.2907 10.3481 33.995C5.46374 39.0559 2.37783 40.9178 1.09033 39.5807C5.57906 34.9298 31.4166 8.15381 31.4166 8.15381V8.15835Z" fill="url(#paint1_linear_226_1861)"/>
<path d="M30.4602 7.1672L8.72827 29.6846L10.6513 31.6771L32.3831 9.15969L30.4602 7.1672Z" fill="#739CED"/>
<path d="M6.48129 29.9884C9.09132 27.2841 14.4647 22.683 16.1813 20.9043L19.1154 23.9444C17.3856 25.7368 12.9582 31.2907 10.3482 33.9951C5.46385 39.0559 2.37794 40.9178 1.09044 39.5808C-0.197053 38.2437 1.5999 35.0463 6.48129 29.9884Z" fill="#6D6D6E"/>
<path d="M7.51041 30.2609C10.0153 27.6655 15.0252 23.1143 16.6718 21.4082L18.6249 23.4319C16.9696 25.1471 12.586 30.329 10.081 32.9244C5.39816 37.7766 2.62902 39.758 1.77361 38.8686C0.918193 37.9793 2.83046 35.11 7.51041 30.2609Z" fill="black"/>
<path d="M36.9608 13.9711L40 10.822L39.8818 10.2684L32.0692 2.16894L26.0609 0L24.5544 1.55638L36.4266 13.8531L36.9608 13.9711Z" fill="#D8DADC"/>
<path d="M36.9608 13.9713L40 10.8223L39.2994 10.5319L32.6429 3.63483L25.2551 1.55664H24.5544L36.4266 13.8533L36.9608 13.9713Z" fill="#98989C"/>
<path d="M36.6674 13.2634L39.2424 10.5953C39.2731 10.5635 39.2731 10.5091 39.2424 10.4773L31.662 2.62286C31.662 2.62286 31.6444 2.60925 31.6313 2.60471L26.2448 0.603657C26.2142 0.594582 26.1835 0.603661 26.1616 0.621811L25.3121 1.50209C25.2814 1.53385 25.2814 1.5883 25.3121 1.62007L36.5536 13.2679C36.5842 13.2997 36.6368 13.2997 36.6674 13.2679V13.2634Z" fill="#6D6D6E"/>
<path d="M33.5187 29.9888C30.9086 27.2844 25.5353 22.6834 23.8186 20.9047L10.0503 6.63867L7.11621 9.67881L20.8846 23.9448C22.6144 25.7371 27.0418 31.2911 29.6518 33.9954C34.5361 39.0563 37.622 40.9182 38.9095 39.5811C40.197 38.2441 38.4001 35.0466 33.5187 29.9888Z" fill="url(#paint2_linear_226_1861)"/>
<path d="M8.58326 8.15835L7.11621 9.67842L20.8846 23.9444C22.6144 25.7367 27.0418 31.2907 29.6518 33.995C34.5361 39.0559 37.622 40.9178 38.9095 39.5807C34.4208 34.9298 8.57888 8.15381 8.57888 8.15381L8.58326 8.15835Z" fill="url(#paint3_linear_226_1861)"/>
<path d="M9.53761 7.16571L7.61462 9.1582L29.3465 31.6756L31.2695 29.6831L9.53761 7.16571Z" fill="#739CED"/>
<path d="M33.5186 29.9884C30.9086 27.2841 25.5353 22.683 23.8186 20.9043L20.8845 23.9444C22.6143 25.7368 27.0417 31.2907 29.6518 33.9951C34.5361 39.0559 37.622 40.9178 38.9095 39.5808C40.197 38.2437 38.4 35.0463 33.5186 29.9884Z" fill="#6D6D6E"/>
<path d="M32.4896 30.2609C29.9847 27.6655 24.9749 23.1143 23.3283 21.4082L21.3751 23.4319C23.0305 25.1471 27.4141 30.329 29.919 32.9244C34.6019 37.7766 37.371 39.758 38.2264 38.8686C39.0819 37.9793 37.1696 35.11 32.4896 30.2609Z" fill="black"/>
<path d="M3.03919 13.9711L0 10.822L0.11386 10.2684L7.93081 2.16894L13.9391 0L15.4412 1.55638L3.57346 13.8531L3.03919 13.9711Z" fill="#D8DADC"/>
<path d="M3.03919 13.9713L0 10.8223L0.6963 10.5319L7.35275 3.63483L14.7449 1.55664H15.4412L3.57346 13.8533L3.03919 13.9713Z" fill="#98989C"/>
<path d="M3.3326 13.2634L0.75761 10.5953C0.726955 10.5635 0.726955 10.5091 0.75761 10.4773L8.33808 2.62286C8.33808 2.62286 8.3556 2.60925 8.36873 2.60471L13.7552 0.603657C13.7859 0.594582 13.8165 0.603661 13.8384 0.621811L14.688 1.50209C14.7186 1.53385 14.7186 1.5883 14.688 1.62007L3.44647 13.2679C3.41581 13.2997 3.36326 13.2997 3.3326 13.2679V13.2634Z" fill="#6D6D6E"/>
<defs>
<linearGradient id="paint0_linear_226_1861" x1="-22.0513" y1="-15.1667" x2="38.5966" y2="-12.5472" gradientUnits="userSpaceOnUse">
<stop stop-color="#040E1D"/>
<stop offset="0.203125" stop-color="#0E305F"/>
<stop offset="0.395833" stop-color="#133F7B"/>
<stop offset="0.578125" stop-color="#19519D"/>
<stop offset="0.786458" stop-color="#1161CD"/>
<stop offset="1" stop-color="#1161CD"/>
</linearGradient>
<linearGradient id="paint1_linear_226_1861" x1="-21.3637" y1="-12.661" x2="38.5171" y2="-9.98543" gradientUnits="userSpaceOnUse">
<stop stop-color="#040E1D"/>
<stop offset="0.203125" stop-color="#0E305F"/>
<stop offset="0.395833" stop-color="#133F7B"/>
<stop offset="0.578125" stop-color="#19519D"/>
<stop offset="0.786458" stop-color="#1161CD"/>
<stop offset="1" stop-color="#1161CD"/>
</linearGradient>
<linearGradient id="paint2_linear_226_1861" x1="-15.6225" y1="-15.1667" x2="45.0254" y2="-12.5472" gradientUnits="userSpaceOnUse">
<stop stop-color="#040E1D"/>
<stop offset="0.203125" stop-color="#0E305F"/>
<stop offset="0.395833" stop-color="#133F7B"/>
<stop offset="0.578125" stop-color="#19519D"/>
<stop offset="0.786458" stop-color="#1161CD"/>
<stop offset="1" stop-color="#1161CD"/>
</linearGradient>
<linearGradient id="paint3_linear_226_1861" x1="-15.3378" y1="-12.661" x2="44.543" y2="-9.98542" gradientUnits="userSpaceOnUse">
<stop stop-color="#040E1D"/>
<stop offset="0.203125" stop-color="#0E305F"/>
<stop offset="0.395833" stop-color="#133F7B"/>
<stop offset="0.578125" stop-color="#19519D"/>
<stop offset="0.786458" stop-color="#1161CD"/>
<stop offset="1" stop-color="#1161CD"/>
</linearGradient>
</defs>
</svg>

<svg width="40" height="40" fill="none" xmlns="http://www.w3.org/2000/svg"><path d="M6.481 29.989c2.61-2.705 7.984-7.306 9.7-9.084L29.95 6.639l2.934 3.04-13.769 14.266c-1.73 1.792-6.157 7.346-8.767 10.05-4.884 5.061-7.97 6.923-9.258 5.586-1.287-1.337.51-4.534 5.391-9.592Z" fill="url(#a)"/><path d="m31.417 8.158 1.467 1.52-13.769 14.266c-1.73 1.793-6.157 7.347-8.767 10.051-4.884 5.06-7.97 6.923-9.258 5.586C5.58 34.93 31.417 8.154 31.417 8.154v.004Z" fill="url(#b)"/><path d="M30.46 7.167 8.728 29.685l1.923 1.992L32.383 9.16 30.46 7.167Z" fill="#739CED"/><path d="M6.481 29.988c2.61-2.704 7.984-7.305 9.7-9.084l2.934 3.04c-1.73 1.793-6.157 7.347-8.767 10.051-4.884 5.06-7.97 6.923-9.258 5.586-1.287-1.337.51-4.535 5.391-9.593Z" fill="#6D6D6E"/><path d="M7.51 30.26c2.505-2.595 7.515-7.146 9.162-8.852l1.953 2.024c-1.655 1.715-6.039 6.897-8.544 9.492-4.683 4.853-7.452 6.834-8.307 5.945-.856-.89 1.056-3.759 5.736-8.608Z" fill="#000"/><path d="M36.96 13.971 40 10.822l-.118-.554-7.813-8.1L26.061 0l-1.507 1.556 11.873 12.297.534.118Z" fill="#D8DADC"/><path d="M36.96 13.971 40 10.822l-.7-.29-6.657-6.897-7.388-2.078h-.7l11.872 12.296.534.118Z" fill="#98989C"/><path d="m36.667 13.263 2.575-2.668a.087.087 0 0 0 0-.118l-7.58-7.854s-.018-.014-.03-.018L26.244.604a.09.09 0 0 0-.083.018l-.85.88a.087.087 0 0 0 0 .118l11.242 11.648a.08.08 0 0 0 .113 0v-.005Z" fill="#6D6D6E"/><path d="M33.519 29.989c-2.61-2.705-7.984-7.306-9.7-9.084L10.05 6.639l-2.934 3.04 13.769 14.266c1.73 1.792 6.157 7.346 8.767 10.05 4.884 5.061 7.97 6.923 9.258 5.586 1.287-1.337-.51-4.534-5.391-9.592Z" fill="url(#c)"/><path d="m8.583 8.158-1.467 1.52 13.769 14.266c1.73 1.793 6.157 7.347 8.767 10.051 4.884 5.06 7.97 6.923 9.258 5.586L8.579 8.154l.004.004Z" fill="url(#d)"/><path d="M9.538 7.166 7.615 9.158l21.731 22.518 1.924-1.993L9.538 7.166Z" fill="#739CED"/><path d="M33.519 29.988c-2.61-2.704-7.984-7.305-9.7-9.084l-2.934 3.04c1.73 1.793 6.157 7.347 8.767 10.051 4.884 5.06 7.97 6.923 9.258 5.586 1.287-1.337-.51-4.535-5.391-9.593Z" fill="#6D6D6E"/><path d="M32.49 30.26c-2.505-2.595-7.515-7.146-9.162-8.852l-1.953 2.024c1.655 1.715 6.04 6.897 8.544 9.492 4.683 4.853 7.452 6.834 8.307 5.945.856-.89-1.056-3.759-5.736-8.608Z" fill="#000"/><path d="M3.04 13.971 0 10.822l.114-.554 7.817-8.1L13.939 0l1.502 1.556L3.573 13.853l-.534.118Z" fill="#D8DADC"/><path d="M3.04 13.971 0 10.822l.696-.29 6.657-6.897 7.392-2.078h.696L3.573 13.853l-.534.118Z" fill="#98989C"/><path d="M3.333 13.263.758 10.595a.087.087 0 0 1 0-.118l7.58-7.854s.018-.014.03-.018L13.756.604a.09.09 0 0 1 .083.018l.85.88c.03.032.03.086 0 .118L3.446 13.268a.08.08 0 0 1-.113 0v-.005Z" fill="#6D6D6E"/><defs><linearGradient id="a" x1="-22.051" y1="-15.167" x2="38.597" y2="-12.547" gradientUnits="userSpaceOnUse"><stop stop-color="#040E1D"/><stop offset=".203" stop-color="#0E305F"/><stop offset=".396" stop-color="#133F7B"/><stop offset=".578" stop-color="#19519D"/><stop offset=".786" stop-color="#1161CD"/><stop offset="1" stop-color="#1161CD"/></linearGradient><linearGradient id="b" x1="-21.364" y1="-12.661" x2="38.517" y2="-9.985" gradientUnits="userSpaceOnUse"><stop stop-color="#040E1D"/><stop offset=".203" stop-color="#0E305F"/><stop offset=".396" stop-color="#133F7B"/><stop offset=".578" stop-color="#19519D"/><stop offset=".786" stop-color="#1161CD"/><stop offset="1" stop-color="#1161CD"/></linearGradient><linearGradient id="c" x1="-15.623" y1="-15.167" x2="45.025" y2="-12.547" gradientUnits="userSpaceOnUse"><stop stop-color="#040E1D"/><stop offset=".203" stop-color="#0E305F"/><stop offset=".396" stop-color="#133F7B"/><stop offset=".578" stop-color="#19519D"/><stop offset=".786" stop-color="#1161CD"/><stop offset="1" stop-color="#1161CD"/></linearGradient><linearGradient id="d" x1="-15.338" y1="-12.661" x2="44.543" y2="-9.985" gradientUnits="userSpaceOnUse"><stop stop-color="#040E1D"/><stop offset=".203" stop-color="#0E305F"/><stop offset=".396" stop-color="#133F7B"/><stop offset=".578" stop-color="#19519D"/><stop offset=".786" stop-color="#1161CD"/><stop offset="1" stop-color="#1161CD"/></linearGradient></defs></svg>
